X:50
T:Murray's Reel                                                                                     
M:4/4                                                                                               
L:1/8                                                                                               
K:D                                                                                                 
A3 B defg|adgd edBd|A3 B defe|dBAF EFDF|                                                            
A3 B defg|adfd edBd|A3 B defe|dBAF EF D2 :|                                                         
faaf defg|adfd edBd faaf defd|dBAF EF D2|                                                           
faaf defg|adfd edBd|A3 B defe|dBAF EF D2 :|
